src/lib/packages/icons/src/assets/line/file-settings.svg

<svg width="24" height="24" viewBox="0 0 24 24" fill="none" xmlns="http://www.w3.org/2000/svg">
<path d="M20.53 8.47L14.53 2.47C14.389 2.329 14.199 2.25 14 2.25H8C5.582 2.25 4.25 3.582 4.25 6V18C4.25 20.418 5.582 21.75 8 21.75H17C19.418 21.75 20.75 20.418 20.75 18V9C20.75 8.801 20.671 8.61 20.53 8.47ZM14.75 4.811L18.189 8.25H17C15.423 8.25 14.75 7.577 14.75 6V4.811ZM17 20.25H8C6.423 20.25 5.75 19.577 5.75 18V6C5.75 4.423 6.423 3.75 8 3.75H13.25V6C13.25 8.418 14.582 9.75 17 9.75H19.25V18C19.25 19.577 18.577 20.25 17 20.25ZM15.843 11.693C15.633 11.344 15.187 11.224 14.832 11.422L14.7161 11.486C14.5701 11.568 14.3911 11.567 14.2451 11.485C14.1101 11.41 14.0271 11.273 14.0271 11.13C14.0271 10.645 13.6311 10.249 13.1421 10.249H11.8081C11.3201 10.249 10.9231 10.645 10.9231 11.13C10.9231 11.275 10.8401 11.41 10.7061 11.486C10.5591 11.569 10.3779 11.568 10.2339 11.486C9.81989 11.254 9.28099 11.395 9.04199 11.803L8.37012 12.929C8.26812 13.103 8.22605 13.407 8.27905 13.602C8.34005 13.829 8.49297 14.025 8.69897 14.14C8.83297 14.216 8.91699 14.353 8.91699 14.498C8.91799 14.643 8.83404 14.78 8.69604 14.857C8.49005 14.974 8.33808 15.171 8.27808 15.399C8.22608 15.593 8.27005 15.897 8.37305 16.07L9.04297 17.195C9.28897 17.606 9.81111 17.744 10.2351 17.51C10.3801 17.429 10.5591 17.428 10.7041 17.51C10.7051 17.51 10.7051 17.51 10.7051 17.51C10.8391 17.586 10.9221 17.721 10.9221 17.866C10.9221 18.352 11.3179 18.747 11.8069 18.747H13.1431C13.6301 18.747 14.0271 18.351 14.0271 17.866C14.0271 17.722 14.1101 17.586 14.2461 17.51C14.3901 17.429 14.5701 17.428 14.7161 17.51C15.1371 17.745 15.6579 17.608 15.9089 17.193L16.575 16.074C16.68 15.9 16.7241 15.595 16.6731 15.399C16.6131 15.17 16.4599 14.972 16.2529 14.856C16.2489 14.854 16.245 14.852 16.241 14.85C16.113 14.773 16.033 14.639 16.033 14.499C16.033 14.353 16.117 14.215 16.251 14.139L16.3669 14.074C16.5429 13.975 16.6721 13.809 16.7241 13.613C16.7761 13.418 16.747 13.21 16.644 13.036L15.843 11.693ZM15.0171 15.763L14.8789 15.993C14.4199 15.9 13.928 15.971 13.509 16.206C13.093 16.441 12.7841 16.816 12.6331 17.25H12.3191C12.1681 16.816 11.8601 16.441 11.4431 16.206C11.0241 15.97 10.533 15.898 10.073 15.992L9.93604 15.763C10.244 15.416 10.42 14.967 10.418 14.495C10.417 14.027 10.2401 13.582 9.93506 13.238L10.073 13.007C10.536 13.101 11.0251 13.029 11.4441 12.794C11.8601 12.559 12.1681 12.185 12.3191 11.75H12.6331C12.7841 12.184 13.0921 12.559 13.5081 12.793C13.9271 13.03 14.4159 13.102 14.8799 13.007L15.0171 13.237C14.7101 13.583 14.5339 14.031 14.5339 14.503C14.5339 14.972 14.7111 15.418 15.0171 15.763ZM13.52 14.5C13.52 15.052 13.073 15.5 12.52 15.5C11.968 15.5 11.5149 15.052 11.5149 14.5C11.5149 13.948 11.958 13.5 12.51 13.5H12.52C13.072 13.5 13.52 13.948 13.52 14.5Z" fill="currentColor"/>
</svg>

<svg xmlns="http://www.w3.org/2000/svg" width="24" height="24" fill="none"><path fill="currentColor" d="m20.53 8.47-6-6a.749.749 0 0 0-.53-.22H8C5.582 2.25 4.25 3.582 4.25 6v12c0 2.418 1.332 3.75 3.75 3.75h9c2.418 0 3.75-1.332 3.75-3.75V9a.747.747 0 0 0-.22-.53Zm-5.78-3.659 3.439 3.439H17c-1.577 0-2.25-.673-2.25-2.25V4.811ZM17 20.25H8c-1.577 0-2.25-.673-2.25-2.25V6c0-1.577.673-2.25 2.25-2.25h5.25V6c0 2.418 1.332 3.75 3.75 3.75h2.25V18c0 1.577-.673 2.25-2.25 2.25Zm-1.157-8.557a.751.751 0 0 0-1.011-.271l-.116.064a.482.482 0 0 1-.47-.001.412.412 0 0 1-.219-.355.884.884 0 0 0-.885-.881h-1.334a.885.885 0 0 0-.885.881c0 .145-.083.28-.217.356a.481.481 0 0 1-.472 0 .889.889 0 0 0-1.192.317l-.672 1.126a1.012 1.012 0 0 0-.09.673.882.882 0 0 0 .419.538.418.418 0 0 1 .218.358.413.413 0 0 1-.221.359.886.886 0 0 0-.418.542c-.052.194-.008.498.095.671l.67 1.125a.883.883 0 0 0 1.192.315.48.48 0 0 1 .47 0 .413.413 0 0 1 .217.356c0 .486.396.881.885.881h1.336a.884.884 0 0 0 .884-.881c0-.144.083-.28.22-.356a.482.482 0 0 1 .47 0 .882.882 0 0 0 1.192-.317l.666-1.119c.105-.174.15-.479.098-.675a.882.882 0 0 0-.42-.543l-.012-.006a.417.417 0 0 1-.208-.351.42.42 0 0 1 .218-.36l.116-.065a.75.75 0 0 0 .277-1.038l-.801-1.343Zm-.826 4.07-.138.23a2.002 2.002 0 0 0-1.37.213c-.416.235-.725.61-.876 1.044h-.314a1.929 1.929 0 0 0-.876-1.044 1.99 1.99 0 0 0-1.37-.214l-.137-.229c.308-.347.484-.796.482-1.268a1.903 1.903 0 0 0-.483-1.257l.138-.231c.463.094.952.022 1.371-.213.416-.235.724-.609.875-1.044h.314c.151.434.46.809.875 1.043.42.237.908.309 1.372.214l.137.23a1.907 1.907 0 0 0-.483 1.266c0 .469.177.915.483 1.26ZM13.52 14.5a1 1 0 0 1-1 1 1.005 1.005 0 0 1-1.005-1c0-.552.443-1 .995-1h.01a1 1 0 0 1 1 1Z"/></svg>
